X: 20161
T: Joanna's Fast Tune
R: reel
M: 4/4
K: Edorian
|:B>E (3EEE B>E (3EEE|D>E (3FED D>E (3FED|B>E (3EEE B>E (3EEE|D>E (3FED E4:|
|:B2 A2 d2 c2|B>E (3EEE B>E (3EEE|B2 A2 d2 c2|D>E (3FED E4:|

